assets/images/logo.svg

<svg width="500" height="500" xmlns="http://www.w3.org/2000/svg"><path d="M69 296.5c0-45.533 36.743-82.5 82-82.5s82 36.967 82 82.5-36.743 82.5-82 82.5-82-36.967-82-82.5z" fill="#2D2D2D"/><path d="M161 332.5c0-45.533 36.743-82.5 82-82.5s82 36.967 82 82.5-36.743 82.5-82 82.5-82-36.967-82-82.5z" fill="#2D2D2D"/><path d="M248 296.5c0-45.533 36.743-82.5 82-82.5s82 36.967 82 82.5-36.743 82.5-82 82.5-82-36.967-82-82.5z" fill="#2D2D2D"/><path d="M211 199c0-45.533 36.743-82.5 82-82.5s82 36.967 82 82.5-36.743 82.5-82 82.5-82-36.967-82-82.5z" fill="#2D2D2D"/><path d="M106 238.5c0-45.533 36.743-82.5 82-82.5s82 36.967 82 82.5-36.743 82.5-82 82.5-82-36.967-82-82.5z" fill="#2D2D2D"/><path stroke-width="20" stroke="#2D2D2D" stroke-linecap="round" stroke-miterlimit="3" d="M29 250L142 69M186 129l48-84M322 96l36-66M401 410.5L474 274M24.5 415l37-59M125 479l36-64M293 465l32-61M397 210l80-141"/></svg>

<?xml version="1.0"?>
<!-- Generator: Gravit.io -->
<svg width="500" height="500" preserveAspectRatio="xMidYMid meet" viewBox="0 0 500 500" xmlns="http://www.w3.org/2000/svg" xmlns:svg="http://www.w3.org/2000/svg">
  <g>
    <title>logo</title>
    <path d=" M 69 296.5 C 69 250.967 105.743 214 151 214 C 196.257 214 233 250.967 233 296.5 C 233 342.033 196.257 379 151 379 C 105.743 379 69 342.033 69 296.5 Z " />
    <path d=" M 161 332.5 C 161 286.967 197.743 250 243 250 C 288.257 250 325 286.967 325 332.5 C 325 378.033 288.257 415 243 415 C 197.743 415 161 378.033 161 332.5 Z " />
    <path d=" M 248 296.5 C 248 250.967 284.743 214 330 214 C 375.257 214 412 250.967 412 296.5 C 412 342.033 375.257 379 330 379 C 284.743 379 248 342.033 248 296.5 Z " />
    <path d=" M 211 199 C 211 153.467 247.743 116.5 293 116.5 C 338.257 116.5 375 153.467 375 199 C 375 244.533 338.257 281.5 293 281.5 C 247.743 281.5 211 244.533 211 199 Z " />
    <path d=" M 106 238.5 C 106 192.967 142.743 156 188 156 C 233.257 156 270 192.967 270 238.5 C 270 284.033 233.257 321 188 321 C 142.743 321 106 284.033 106 238.5 Z " />
    <line x1="16" y1="304" x2="136.5" y2="87" stroke-width="20" stroke="rgb(0,0,0)" stroke-linejoin="miter" stroke-linecap="round" stroke-miterlimit="3"/>
    <line x1="186" y1="129" x2="234" y2="45" stroke-width="20" stroke="rgb(0,0,0)" stroke-linejoin="miter" stroke-linecap="round" stroke-miterlimit="3"/>
    <line x1="330" y1="105" x2="377" y2="23"  stroke-width="20" stroke="rgb(0,0,0)" stroke-linejoin="miter" stroke-linecap="round" stroke-miterlimit="3"/>
    <line x1="397" y1="210" x2="477" y2="69" stroke-width="20" stroke="rgb(0,0,0)" stroke-linejoin="miter" stroke-linecap="round" stroke-miterlimit="3"/>
    <line x1="400" y1="393.5" x2="473" y2="257" stroke-width="20" stroke="rgb(0,0,0)" stroke-linejoin="miter" stroke-linecap="round" stroke-miterlimit="3"/>
    <line x1="11.5" y1="445" x2="56" y2="364" stroke-width="20" stroke="rgb(0,0,0)" stroke-linejoin="miter" stroke-linecap="round" stroke-miterlimit="3"/>
    <line x1="125" y1="479" x2="161" y2="415" stroke-width="20" stroke="rgb(0,0,0)" stroke-linejoin="miter" stroke-linecap="round" stroke-miterlimit="3"/>
    <line x1="272" y1="483" x2="313" y2="408" stroke-width="20" stroke="rgb(0,0,0)" stroke-linejoin="miter" stroke-linecap="round" stroke-miterlimit="3"/>
  </g>
</svg>
